SVG_Azure_Grouped/Application/Stream Analytics Cluster.svg

<?xml version="1.0" encoding="UTF-8" standalone="no"?>
<!-- Generated by Microsoft Visio, SVG Export Stream Analytics Cluster.svg Page-1 -->

<svg
   xmlns:dc="http://purl.org/dc/elements/1.1/"
   xmlns:cc="http://creativecommons.org/ns#"
   xmlns:rdf="http://www.w3.org/1999/02/22-rdf-syntax-ns#"
   xmlns:svg="http://www.w3.org/2000/svg"
   xmlns="http://www.w3.org/2000/svg"
   xmlns:xlink="http://www.w3.org/1999/xlink"
   xmlns:sodipodi="http://sodipodi.sourceforge.net/DTD/sodipodi-0.dtd"
   xmlns:inkscape="http://www.inkscape.org/namespaces/inkscape"
   width="0.78733683in"
   height="0.74480796in"
   viewBox="0 0 56.68816 53.626313"
   xml:space="preserve"
   class="st7"
   version="1.1"
   id="svg98"
   sodipodi:docname="Stream Analytics Cluster.svg"
   style="font-size:12px;overflow:visible;color-interpolation-filters:sRGB;fill:none;fill-rule:evenodd;stroke-linecap:square;stroke-miterlimit:3"
   inkscape:version="0.92.5 (2060ec1f9f, 2020-04-08)"><metadata
   id="metadata102"><rdf:RDF><cc:Work
       rdf:about=""><dc:format>image/svg+xml</dc:format><dc:type
         rdf:resource="http://purl.org/dc/dcmitype/StillImage" /></cc:Work></rdf:RDF></metadata><sodipodi:namedview
   pagecolor="#ffffff"
   bordercolor="#666666"
   borderopacity="1"
   objecttolerance="10"
   gridtolerance="10"
   guidetolerance="10"
   inkscape:pageopacity="0"
   inkscape:pageshadow="2"
   inkscape:window-width="640"
   inkscape:window-height="480"
   id="namedview100"
   showgrid="false"
   inkscape:zoom="1.4523234"
   inkscape:cx="37.795237"
   inkscape:cy="35.58259"
   inkscape:window-x="0"
   inkscape:window-y="0"
   inkscape:window-maximized="0"
   inkscape:current-layer="svg98" />
	<style
   type="text/css"
   id="style2">
	<![CDATA[
		.st1 {fill:#949494;stroke:none;stroke-linecap:butt;stroke-width:34}
		.st2 {fill:#003067;stroke:none;stroke-linecap:butt;stroke-width:34}
		.st3 {fill:#50e6ff;stroke:none;stroke-linecap:butt;stroke-width:34}
		.st4 {fill:url(#grad0-12);stroke:none;stroke-linecap:butt;stroke-width:34}
		.st5 {fill:url(#grad0-19);stroke:none;stroke-linecap:butt;stroke-width:34}
		.st6 {fill:#32bedd;stroke:none;stroke-linecap:butt;stroke-width:34}
		.st7 {fill:none;fill-rule:evenodd;font-size:12px;overflow:visible;stroke-linecap:square;stroke-miterlimit:3}
	]]>
	</style>

	<defs
   id="Patterns_And_Gradients">
		<linearGradient
   id="grad0-12"
   x1="0"
   y1="0"
   x2="1"
   y2="0"
   gradientTransform="rotate(-90,0.5,0.5)">
			<stop
   offset="0"
   stop-color="#b3b2b3"
   stop-opacity="1"
   id="stop4" />
			<stop
   offset="0.38"
   stop-color="#afaeaf"
   stop-opacity="1"
   id="stop6" />
			<stop
   offset="0.76"
   stop-color="#a2a2a2"
   stop-opacity="1"
   id="stop8" />
			<stop
   offset="1"
   stop-color="#979797"
   stop-opacity="1"
   id="stop10" />
		</linearGradient>
		<linearGradient
   id="grad0-19"
   x1="4.673538e-16"
   y1="87.809887"
   x2="27.993499"
   y2="87.809887"
   gradientTransform="scale(0.95022061,1.0523872)"
   gradientUnits="userSpaceOnUse">
			<stop
   offset="0"
   stop-color="#949494"
   stop-opacity="1"
   id="stop13" />
			<stop
   offset="0.33"
   stop-color="#9b9b9b"
   stop-opacity="1"
   id="stop15" />
			<stop
   offset="0.82"
   stop-color="#aeafb0"
   stop-opacity="1"
   id="stop17" />
			<stop
   offset="1"
   stop-color="#b6b8b9"
   stop-opacity="1"
   id="stop19" />
		</linearGradient>
	<linearGradient
   inkscape:collect="always"
   xlink:href="#grad0-12"
   id="linearGradient4612"
   gradientTransform="scale(0.8386242,1.1924292)"
   x1="0"
   y1="68.395424"
   x2="33.61458"
   y2="68.395424"
   gradientUnits="userSpaceOnUse" /><linearGradient
   inkscape:collect="always"
   xlink:href="#grad0-12"
   id="linearGradient4614"
   gradientTransform="scale(1.016001,0.98425098)"
   x1="0"
   y1="123.50508"
   x2="0.31496031"
   y2="123.50508"
   gradientUnits="userSpaceOnUse" /></defs>
	<g
   id="g96"
   transform="translate(-34.000261,-33.9977)">
		<title
   id="title23">Page-1</title>
		<g
   id="group13692-1"
   transform="translate(34,-34.0157)">
			<title
   id="title25">Stream Analytics Cluster.13692</title>
			<g
   id="group13693-2">
				<title
   id="title27"> Cluster</title>
				<g
   id="shape13694-3"
   transform="translate(0,-14.2566)">
					<title
   id="title29">Sheet.13694</title>
					<path
   d="m 19.32,120.61 c 0.32,-0.32 0.95,-0.64 1.27,-0.95 0,-0.32 0.31,-0.64 0.31,-0.95 0.64,-0.95 1.59,-1.59 2.54,-1.9 0.31,-0.64 0.63,-0.96 0.95,-1.27 0.63,-0.64 1.58,-0.95 2.53,-1.27 L 26.6,113 l -1.58,-2.85 3.17,-3.17 V 83.54 c 0,-0.63 -0.64,-1.27 -1.59,-1.27 H 1.58 C 0.95,82.27 0,82.91 0,83.54 v 37.07 c 0,0.95 0.95,1.26 1.58,1.26 h 16.79 c 0.32,-0.31 0.63,-0.95 0.95,-1.26 z"
   class="st1"
   id="path31"
   inkscape:connector-curvature="0"
   style="fill:#949494;stroke:none;stroke-width:34;stroke-linecap:butt" />
				</g>
				<g
   id="shape13695-5"
   transform="translate(4.11736,-33.5822)">
					<title
   id="title34">Sheet.13695</title>
					<path
   d="m 0,118.71 c 0,-1.59 1.27,-3.17 3.17,-3.17 h 14.25 c 1.58,0 3.17,1.27 3.17,3.17 0,1.58 -1.27,3.16 -3.17,3.16 H 3.17 C 1.58,121.56 0,120.29 0,118.71 Z m 0,-9.19 c 0,-1.59 1.27,-3.17 3.17,-3.17 h 14.25 c 1.58,0 3.17,1.27 3.17,3.17 0,1.58 -1.27,3.17 -3.17,3.17 H 3.17 C 1.58,112.37 0,111.1 0,109.52 Z"
   class="st2"
   id="path36"
   inkscape:connector-curvature="0"
   style="fill:#003067;stroke:none;stroke-width:34;stroke-linecap:butt" />
				</g>
				<g
   id="shape13696-7"
   transform="translate(5.06752,-43.7202)">
					<title
   id="title39">Sheet.13696</title>
					<ellipse
   cx="2.2170401"
   cy="119.656"
   rx="2.2170401"
   ry="2.21769"
   class="st3"
   id="ellipse41"
   style="fill:#50e6ff;stroke:none;stroke-width:34;stroke-linecap:butt" />
				</g>
				<g
   id="shape13697-9"
   transform="translate(10.4518)">
					<title
   id="title44">Sheet.13697</title>
					<path
   d="m 14.89,116.81 c -2.22,-0.64 -4.12,-1.91 -5.71,-3.49 -1.9,-1.9 -1.9,-4.75 0,-6.97 0.32,-0.32 0.96,-0.63 1.27,-0.95 0,-0.32 0.32,-0.63 0.32,-0.95 0.63,-0.95 1.58,-1.58 2.53,-1.9 0.32,-0.64 0.64,-0.95 0.95,-1.27 0.64,-0.63 1.59,-0.95 2.54,-1.27 l -0.64,-1.26 -1.58,-2.85 6.65,-6.34 4.43,2.22 0.64,-1.9 1.9,-1.91 v -5.06 c 0,-0.95 -0.95,-1.59 -1.59,-1.27 H 1.58 C 0.63,81.64 0,82.27 0,83.22 v 37.07 c 0,0.95 0.95,1.58 1.58,1.27 h 18.06 z"
   class="st4"
   id="path46"
   inkscape:connector-curvature="0"
   style="fill:url(#linearGradient4612);stroke:none;stroke-width:34;stroke-linecap:butt" />
				</g>
				<g
   id="shape13698-13"
   transform="translate(35.7894,-0.316813)">
					<title
   id="title49">Sheet.13698</title>
					<path
   d="m 0.32,121.87 v -0.31 L 0,121.87 Z"
   class="st4"
   id="path51"
   inkscape:connector-curvature="0"
   style="fill:url(#linearGradient4614);stroke:none;stroke-width:34;stroke-linecap:butt" />
				</g>
				<g
   id="shape13699-16"
   transform="translate(30.0884,-0.316813)">
					<title
   id="title54">Sheet.13699</title>
					<path
   d="m 26.6,108.25 v -3.48 l -0.31,-0.32 -3.49,-1.27 -0.95,-2.22 1.9,-3.48 0.32,-0.32 -1.27,-1.26 -1.26,-1.27 -0.32,0.31 -3.48,1.91 -2.22,-0.64 -1.58,-3.8 h -3.49 l -0.31,0.32 -1.27,3.48 -2.54,0.95 -4.11,-1.9 -2.22,1.9 0.32,0.32 1.9,3.48 c 1.9,-1.26 4.11,-1.58 6.01,-1.58 2.54,0 4.76,0.63 6.97,2.22 0.32,0 0.32,0.31 0.64,0.63 0.95,0.64 1.58,1.59 1.9,2.54 0.31,0.63 0.31,1.26 0.31,2.21 0,3.49 -2.85,6.34 -6.33,6.34 -1.27,0 -2.54,-0.32 -3.49,-1.27 -2.21,1.9 -4.75,3.17 -7.6,3.49 l -0.31,0.63 2.53,2.54 h 0.63 l 3.49,-1.9 2.53,0.95 1.59,4.11 h 3.48 v -0.63 l 1.27,-3.8 2.21,-0.95 4.12,1.9 2.53,-2.54 -0.31,-0.31 -1.9,-3.49 0.63,-2.53 z"
   class="st5"
   id="path56"
   inkscape:connector-curvature="0"
   style="fill:url(#grad0-19);stroke:none;stroke-width:34;stroke-linecap:butt" />
				</g>
				<g
   id="shape13700-20"
   transform="translate(24.0707,-12.0389)">
					<title
   id="title59">Sheet.13700</title>
					<path
   d="m 5.7,121.87 c -1.9,0 -3.48,-0.63 -5.07,-1.9 -0.31,-0.31 -0.63,-0.63 -0.31,-1.26 0.31,-0.64 0.95,-0.64 1.26,-0.32 l 0.32,0.32 c 0.95,0.95 2.22,1.58 3.8,1.26 1.27,0 2.53,-0.31 3.48,-1.26 1.27,-1.27 3.17,-1.9 5.07,-1.9 1.9,0 3.49,0.63 5.07,1.9 0.32,0.31 0.32,0.95 0,1.26 -0.32,0.32 -0.95,0.32 -1.27,0 -0.95,-0.95 -2.21,-1.58 -3.8,-1.58 -1.26,0 -2.53,0.63 -3.48,1.58 -1.59,1.27 -3.17,1.9 -5.07,1.9 z"
   class="st3"
   id="path61"
   inkscape:connector-curvature="0"
   style="fill:#50e6ff;stroke:none;stroke-width:34;stroke-linecap:butt" />
				</g>
				<g
   id="shape13701-22"
   transform="translate(26.9212,-15.5239)">
					<title
   id="title64">Sheet.13701</title>
					<path
   d="m 2.85,121.87 c -0.95,0 -1.9,-0.31 -2.53,-0.95 -0.32,-0.31 -0.32,-0.95 0,-1.26 0.31,-0.32 0.95,-0.32 1.26,0 0.32,0.31 0.64,0.63 1.27,0.63 0.32,0 0.95,-0.32 1.27,-0.63 4.11,-4.12 10.77,-4.12 14.88,0 0.32,0.31 0.32,0.95 0,1.26 -0.31,0.32 -0.95,0.32 -1.26,0 -3.49,-3.48 -8.87,-3.48 -12.36,0 -0.95,0.64 -1.58,0.95 -2.53,0.95 z"
   class="st3"
   id="path66"
   inkscape:connector-curvature="0"
   style="fill:#50e6ff;stroke:none;stroke-width:34;stroke-linecap:butt" />
				</g>
				<g
   id="shape13702-24"
   transform="translate(21.8537,-8.55396)">
					<title
   id="title69">Sheet.13702</title>
					<path
   d="m 7.92,121.87 c -2.85,0 -5.39,-0.95 -7.6,-3.16 -0.32,-0.32 -0.32,-0.95 0,-1.27 0.31,-0.32 0.95,-0.32 1.26,0 3.49,3.48 8.87,3.48 12.36,0 0.63,-0.63 1.58,-0.95 2.21,-0.95 0.95,0 1.9,0.32 2.54,0.95 0.31,0.32 0.31,0.95 0,1.27 -0.32,0.31 -0.95,0.31 -1.27,0 -0.32,-0.32 -0.63,-0.64 -1.27,-0.64 -0.31,0 -0.95,0.32 -1.26,0.64 -1.59,2.21 -4.12,3.16 -6.97,3.16 z"
   class="st6"
   id="path71"
   inkscape:connector-curvature="0"
   style="fill:#32bedd;stroke:none;stroke-width:34;stroke-linecap:butt" />
				</g>
				<g
   id="shape13703-26"
   transform="translate(13.9357,-20.2761)">
					<title
   id="title74">Sheet.13703</title>
					<path
   d="m 17.74,109.84 2.53,1.26 c 0.32,-0.31 0.32,-0.95 0.32,-1.26 0,-1.59 -1.27,-3.17 -3.17,-3.17 H 3.17 c -1.59,0 -3.17,1.26 -3.17,3.17 0,1.9 1.27,3.16 3.17,3.16 h 11.4 z m -6.97,11.4 c 0.63,-0.63 1.58,-0.95 2.53,-1.27 l -0.63,-0.95 -1.58,-2.85 0.31,-0.32 H 3.17 c -1.59,0 -3.17,1.59 -2.85,3.17 0,1.59 1.26,2.85 2.85,2.85 h 6.65 c 0.63,0 0.63,-0.31 0.95,-0.63 z"
   class="st2"
   id="path76"
   inkscape:connector-curvature="0"
   style="fill:#003067;stroke:none;stroke-width:34;stroke-linecap:butt" />
				</g>
				<g
   id="shape13704-28"
   transform="translate(5.06752,-34.5327)">
					<title
   id="title79">Sheet.13704</title>
					<ellipse
   cx="2.2170401"
   cy="119.656"
   rx="2.2170401"
   ry="2.21769"
   class="st3"
   id="ellipse81"
   style="fill:#50e6ff;stroke:none;stroke-width:34;stroke-linecap:butt" />
				</g>
				<g
   id="shape13705-30"
   transform="translate(15.2026,-30.0973)">
					<title
   id="title84">Sheet.13705</title>
					<ellipse
   cx="2.2170401"
   cy="119.656"
   rx="2.2170401"
   ry="2.21769"
   class="st3"
   id="ellipse86"
   style="fill:#50e6ff;stroke:none;stroke-width:34;stroke-linecap:butt" />
				</g>
				<g
   id="shape13706-32"
   transform="translate(15.2026,-20.9097)">
					<title
   id="title89">Sheet.13706</title>
					<ellipse
   cx="2.2170401"
   cy="119.656"
   rx="2.2170401"
   ry="2.21769"
   class="st3"
   id="ellipse91"
   style="fill:#50e6ff;stroke:none;stroke-width:34;stroke-linecap:butt" />
				</g>
			</g>
		</g>
	</g>
</svg>

<?xml version="1.0" encoding="UTF-8" standalone="no"?>
<!DOCTYPE svg PUBLIC "-//W3C//DTD SVG 1.1//EN" "http://www.w3.org/Graphics/SVG/1.1/DTD/svg11.dtd">
<!-- Generated by Microsoft Visio, SVG Export Stream Analytics Cluster.svg Page-1 -->
<svg xmlns="http://www.w3.org/2000/svg" xmlns:xlink="http://www.w3.org/1999/xlink" xmlns:ev="http://www.w3.org/2001/xml-events"
		width="1.73185in" height="1.69269in" viewBox="0 0 124.693 121.874" xml:space="preserve" color-interpolation-filters="sRGB"
		class="st7">
	<style type="text/css">
	<![CDATA[
		.st1 {fill:#949494;stroke:none;stroke-linecap:butt;stroke-width:34}
		.st2 {fill:#003067;stroke:none;stroke-linecap:butt;stroke-width:34}
		.st3 {fill:#50e6ff;stroke:none;stroke-linecap:butt;stroke-width:34}
		.st4 {fill:url(#grad0-12);stroke:none;stroke-linecap:butt;stroke-width:34}
		.st5 {fill:url(#grad0-19);stroke:none;stroke-linecap:butt;stroke-width:34}
		.st6 {fill:#32bedd;stroke:none;stroke-linecap:butt;stroke-width:34}
		.st7 {fill:none;fill-rule:evenodd;font-size:12px;overflow:visible;stroke-linecap:square;stroke-miterlimit:3}
	]]>
	</style>

	<defs id="Patterns_And_Gradients">
		<linearGradient id="grad0-12" x1="0" y1="0" x2="1" y2="0" gradientTransform="rotate(-90 0.5 0.5)">
			<stop offset="0" stop-color="#b3b2b3" stop-opacity="1"/>
			<stop offset="0.38" stop-color="#afaeaf" stop-opacity="1"/>
			<stop offset="0.76" stop-color="#a2a2a2" stop-opacity="1"/>
			<stop offset="1" stop-color="#979797" stop-opacity="1"/>
		</linearGradient>
		<linearGradient id="grad0-19" x1="0" y1="0" x2="1" y2="0" gradientTransform="rotate(-90 0.5 0.5)">
			<stop offset="0" stop-color="#949494" stop-opacity="1"/>
			<stop offset="0.33" stop-color="#9b9b9b" stop-opacity="1"/>
			<stop offset="0.82" stop-color="#aeafb0" stop-opacity="1"/>
			<stop offset="1" stop-color="#b6b8b9" stop-opacity="1"/>
		</linearGradient>
	</defs>
	<g>
		<title>Page-1</title>
		<g id="group13345-1" transform="translate(34,-34.0157)">
			<title>Stream Analytics Cluster.13345</title>
			<g id="group13346-2">
				<title> Cluster</title>
				<g id="shape13347-3" transform="translate(2.81775E-13,-14.2566)">
					<title>Sheet.13347</title>
					<path d="M19.32 120.61 C19.64 120.29 20.27 119.97 20.59 119.66 C20.59 119.34 20.9 119.02 20.9 118.71 C21.54 117.76
								 22.49 117.12 23.44 116.81 C23.75 116.17 24.07 115.85 24.39 115.54 C25.02 114.9 25.97 114.59 26.92
								 114.27 L26.6 113 L25.02 110.15 L28.19 106.98 L28.19 83.54 C28.19 82.91 27.55 82.27 26.6 82.27 L1.58
								 82.27 C0.95 82.27 0 82.91 0 83.54 L0 120.61 C0 121.56 0.95 121.87 1.58 121.87 L18.37 121.87 C18.69
								 121.56 19 120.92 19.32 120.61 Z" class="st1"/>
				</g>
				<g id="shape13348-5" transform="translate(4.11736,-33.5822)">
					<title>Sheet.13348</title>
					<path d="M0 118.71 C0 117.12 1.27 115.54 3.17 115.54 L17.42 115.54 C19 115.54 20.59 116.81 20.59 118.71 C20.59
								 120.29 19.32 121.87 17.42 121.87 L3.17 121.87 C1.58 121.56 0 120.29 0 118.71 ZM0 109.52 C0 107.93
								 1.27 106.35 3.17 106.35 L17.42 106.35 C19 106.35 20.59 107.62 20.59 109.52 C20.59 111.1 19.32 112.69
								 17.42 112.69 L3.17 112.69 C1.58 112.37 0 111.1 0 109.52 Z" class="st2"/>
				</g>
				<g id="shape13349-7" transform="translate(5.06752,-43.7202)">
					<title>Sheet.13349</title>
					<ellipse cx="2.21704" cy="119.656" rx="2.21704" ry="2.21769" class="st3"/>
				</g>
				<g id="shape13350-9" transform="translate(10.4518,2.84217E-13)">
					<title>Sheet.13350</title>
					<path d="M14.89 116.81 C12.67 116.17 10.77 114.9 9.18 113.32 C7.28 111.42 7.28 108.57 9.18 106.35 C9.5 106.03
								 10.14 105.72 10.45 105.4 C10.45 105.08 10.77 104.77 10.77 104.45 C11.4 103.5 12.35 102.87 13.3 102.55
								 C13.62 101.91 13.94 101.6 14.25 101.28 C14.89 100.65 15.84 100.33 16.79 100.01 L16.15 98.75 L14.57
								 95.9 L21.22 89.56 L25.65 91.78 L26.29 89.88 L28.19 87.97 L28.19 82.91 C28.19 81.96 27.24 81.32 26.6
								 81.64 L1.58 81.64 C0.63 81.64 0 82.27 0 83.22 L0 120.29 C0 121.24 0.95 121.87 1.58 121.56 L19.64
								 121.56 L14.89 116.81 Z" class="st4"/>
				</g>
				<g id="shape13351-13" transform="translate(35.7894,-0.316813)">
					<title>Sheet.13351</title>
					<path d="M0.32 121.87 L0.32 121.56 L0 121.87 L0.32 121.87 Z" class="st4"/>
				</g>
				<g id="shape13352-16" transform="translate(30.0884,-0.316813)">
					<title>Sheet.13352</title>
					<path d="M26.6 108.25 L26.6 104.77 L26.29 104.45 L22.8 103.18 L21.85 100.96 L23.75 97.48 L24.07 97.16 L22.8 95.9
								 L21.54 94.63 L21.22 94.94 L17.74 96.85 L15.52 96.21 L13.94 92.41 L10.45 92.41 L10.14 92.73 L8.87
								 96.21 L6.33 97.16 L2.22 95.26 L0 97.16 L0.32 97.48 L2.22 100.96 C4.12 99.7 6.33 99.38 8.23 99.38
								 C10.77 99.38 12.99 100.01 15.2 101.6 C15.52 101.6 15.52 101.91 15.84 102.23 C16.79 102.87 17.42
								 103.82 17.74 104.77 C18.05 105.4 18.05 106.03 18.05 106.98 C18.05 110.47 15.2 113.32 11.72 113.32
								 C10.45 113.32 9.18 113 8.23 112.05 C6.02 113.95 3.48 115.22 0.63 115.54 L0.32 116.17 L2.85 118.71
								 L3.48 118.71 L6.97 116.81 L9.5 117.76 L11.09 121.87 L14.57 121.87 L14.57 121.24 L15.84 117.44 L18.05
								 116.49 L22.17 118.39 L24.7 115.85 L24.39 115.54 L22.49 112.05 L23.12 109.52 L26.6 108.25 Z"
							class="st5"/>
				</g>
				<g id="shape13353-20" transform="translate(24.0707,-12.0389)">
					<title>Sheet.13353</title>
					<path d="M5.7 121.87 C3.8 121.87 2.22 121.24 0.63 119.97 C0.32 119.66 0 119.34 0.32 118.71 C0.63 118.07 1.27
								 118.07 1.58 118.39 L1.9 118.71 C2.85 119.66 4.12 120.29 5.7 119.97 C6.97 119.97 8.23 119.66 9.18
								 118.71 C10.45 117.44 12.35 116.81 14.25 116.81 C16.15 116.81 17.74 117.44 19.32 118.71 C19.64 119.02
								 19.64 119.66 19.32 119.97 C19 120.29 18.37 120.29 18.05 119.97 C17.1 119.02 15.84 118.39 14.25 118.39
								 C12.99 118.39 11.72 119.02 10.77 119.97 C9.18 121.24 7.6 121.87 5.7 121.87 Z" class="st3"/>
				</g>
				<g id="shape13354-22" transform="translate(26.9212,-15.5239)">
					<title>Sheet.13354</title>
					<path d="M2.85 121.87 C1.9 121.87 0.95 121.56 0.32 120.92 C0 120.61 0 119.97 0.32 119.66 C0.63 119.34 1.27 119.34
								 1.58 119.66 C1.9 119.97 2.22 120.29 2.85 120.29 C3.17 120.29 3.8 119.97 4.12 119.66 C8.23 115.54
								 14.89 115.54 19 119.66 C19.32 119.97 19.32 120.61 19 120.92 C18.69 121.24 18.05 121.24 17.74 120.92
								 C14.25 117.44 8.87 117.44 5.38 120.92 C4.43 121.56 3.8 121.87 2.85 121.87 Z" class="st3"/>
				</g>
				<g id="shape13355-24" transform="translate(21.8537,-8.55396)">
					<title>Sheet.13355</title>
					<path d="M7.92 121.87 C5.07 121.87 2.53 120.92 0.32 118.71 C0 118.39 0 117.76 0.32 117.44 C0.63 117.12 1.27 117.12
								 1.58 117.44 C5.07 120.92 10.45 120.92 13.94 117.44 C14.57 116.81 15.52 116.49 16.15 116.49 C17.1
								 116.49 18.05 116.81 18.69 117.44 C19 117.76 19 118.39 18.69 118.71 C18.37 119.02 17.74 119.02 17.42
								 118.71 C17.1 118.39 16.79 118.07 16.15 118.07 C15.84 118.07 15.2 118.39 14.89 118.71 C13.3 120.92
								 10.77 121.87 7.92 121.87 Z" class="st6"/>
				</g>
				<g id="shape13356-26" transform="translate(13.9357,-20.2761)">
					<title>Sheet.13356</title>
					<path d="M17.74 109.84 L20.27 111.1 C20.59 110.79 20.59 110.15 20.59 109.84 C20.59 108.25 19.32 106.67 17.42
								 106.67 L3.17 106.67 C1.58 106.67 0 107.93 0 109.84 C0 111.74 1.27 113 3.17 113 L14.57 113 L17.74
								 109.84 ZM10.77 121.24 C11.4 120.61 12.35 120.29 13.3 119.97 L12.67 119.02 L11.09 116.17 L11.4 115.85
								 L3.17 115.85 C1.58 115.85 0 117.44 0.32 119.02 C0.32 120.61 1.58 121.87 3.17 121.87 L9.82 121.87
								 C10.45 121.87 10.45 121.56 10.77 121.24 Z" class="st2"/>
				</g>
				<g id="shape13357-28" transform="translate(5.06752,-34.5327)">
					<title>Sheet.13357</title>
					<ellipse cx="2.21704" cy="119.656" rx="2.21704" ry="2.21769" class="st3"/>
				</g>
				<g id="shape13358-30" transform="translate(15.2026,-30.0973)">
					<title>Sheet.13358</title>
					<ellipse cx="2.21704" cy="119.656" rx="2.21704" ry="2.21769" class="st3"/>
				</g>
				<g id="shape13359-32" transform="translate(15.2026,-20.9097)">
					<title>Sheet.13359</title>
					<ellipse cx="2.21704" cy="119.656" rx="2.21704" ry="2.21769" class="st3"/>
				</g>
			</g>
		</g>
	</g>
</svg>
